src/images/problem-6.svg

<svg width="470" height="360" viewBox="0 0 470 360" fill="none" xmlns="http://www.w3.org/2000/svg">
<mask id="mask0" mask-type="alpha" maskUnits="userSpaceOnUse" x="0" y="0" width="470" height="360">
<rect width="470" height="360" fill="white"/>
</mask>
<g mask="url(#mask0)">
<path d="M146.331 65.5083C150.412 65.5083 154.397 65.9214 158.245 66.7075C162.093 67.4936 165.805 68.6527 169.341 70.147C172.876 71.6389 176.237 73.4661 179.382 75.5871C182.527 77.7082 185.457 80.1243 188.13 82.7942C190.804 85.4641 193.224 88.389 195.348 91.5286C197.473 94.6683 199.303 98.0228 200.799 101.553C202.294 105.084 203.455 108.79 204.242 112.632C205.03 116.474 205.444 120.45 205.444 124.525C205.444 128.599 205.03 132.577 204.242 136.419C203.455 140.261 202.294 143.967 200.799 147.496C199.303 151.027 197.473 154.382 195.348 157.522C193.224 160.66 190.804 163.586 188.13 166.255C185.457 168.925 182.527 171.341 179.382 173.462C176.237 175.583 172.876 177.41 169.341 178.904C165.805 180.397 162.093 181.556 158.245 182.342C154.397 183.128 150.412 183.541 146.331 183.541C142.251 183.541 138.267 183.128 134.419 182.342C130.571 181.556 126.858 180.397 123.322 178.904C119.786 177.41 116.426 175.583 113.281 173.462C110.137 171.341 107.207 168.925 104.533 166.255C101.859 163.586 99.4397 160.66 97.314 157.522C95.1895 154.382 93.3594 151.027 91.865 147.496C90.3683 143.967 89.2085 140.261 88.4199 136.419C87.6325 132.577 87.2188 128.599 87.2188 124.525C87.2188 120.45 87.6325 116.474 88.4199 112.632C89.2085 108.79 90.3683 105.084 91.865 101.553C93.3594 98.0228 95.1895 94.6683 97.314 91.5286C99.4397 88.389 101.859 85.4641 104.533 82.7942C107.207 80.1243 110.137 77.7082 113.281 75.5871" stroke="#B2B2B2" stroke-width="2" stroke-linecap="round" stroke-linejoin="round"/>
<path d="M89.1055 85.7736L113.281 75.5874" stroke="#B2B2B2" stroke-width="2" stroke-linecap="round" stroke-linejoin="round"/>
<path d="M146.331 115.672V83.2134" stroke="#231F20" stroke-width="2" stroke-linecap="round" stroke-linejoin="round"/>
<path d="M174.547 147.184L153.238 130.07" stroke="#231F20" stroke-width="2" stroke-linecap="round" stroke-linejoin="round"/>
<path fill-rule="evenodd" clip-rule="evenodd" d="M155.199 124.525C155.199 119.636 151.23 115.672 146.332 115.672C141.435 115.672 137.465 119.636 137.465 124.525C137.465 129.415 141.435 133.377 146.332 133.377C151.23 133.377 155.199 129.415 155.199 124.525Z" stroke="#B2B2B2" stroke-width="2" stroke-linecap="round" stroke-linejoin="round"/>
<path d="M232.377 137.283H340.955" stroke="#231F20" stroke-width="2" stroke-linecap="round" stroke-linejoin="round"/>
<path d="M232.377 88.1619H340.955" stroke="#231F20" stroke-width="2" stroke-linecap="round" stroke-linejoin="round"/>
<path d="M232.377 160.888H362.452" stroke="#231F20" stroke-width="2" stroke-linecap="round" stroke-linejoin="round"/>
<path d="M232.377 113.312H362.452" stroke="#231F20" stroke-width="2" stroke-linecap="round" stroke-linejoin="round"/>
<path d="M363.439 203.654C392.44 189.113 412.337 159.132 412.337 124.525C412.337 75.6359 372.637 36.0005 323.668 36.0005H146.331C97.362 36.0005 57.6621 75.6359 57.6621 124.525C57.6621 173.414 97.362 213.05 146.331 213.05V255.176L188.526 213.05H222.633" stroke="#231F20" stroke-width="2" stroke-linecap="round" stroke-linejoin="round"/>
<path fill-rule="evenodd" clip-rule="evenodd" d="M335.476 323.855L310.91 299.084C310.91 299.084 287.772 299.248 282.092 299.169C266.948 298.956 249.918 301.356 233.765 280.741C211.983 252.943 224.729 198.482 275.435 198.482H320.703C330.93 198.482 357.825 202.831 368.243 232.709C376.81 257.278 367.528 287.927 335.476 297.003V323.855Z" stroke="#B2B2B2" stroke-width="2" stroke-linecap="round" stroke-linejoin="round"/>
<path fill-rule="evenodd" clip-rule="evenodd" d="M337.5 250.56C337.5 254.097 334.629 256.964 331.087 256.964C327.544 256.964 324.672 254.097 324.672 250.56C324.672 247.023 327.544 244.156 331.087 244.156C334.629 244.156 337.5 247.023 337.5 250.56Z" stroke="black" stroke-width="2" stroke-linecap="round" stroke-linejoin="round"/>
<path fill-rule="evenodd" clip-rule="evenodd" d="M303.827 250.56C303.827 254.097 300.955 256.964 297.413 256.964C293.871 256.964 290.998 254.097 290.998 250.56C290.998 247.023 293.871 244.156 297.413 244.156C300.955 244.156 303.827 247.023 303.827 250.56Z" stroke="black" stroke-width="2" stroke-linecap="round" stroke-linejoin="round"/>
<path fill-rule="evenodd" clip-rule="evenodd" d="M270.155 250.56C270.155 254.097 267.282 256.964 263.74 256.964C260.198 256.964 257.326 254.097 257.326 250.56C257.326 247.023 260.198 244.156 263.74 244.156C267.282 244.156 270.155 247.023 270.155 250.56Z" stroke="black" stroke-width="2" stroke-linecap="round" stroke-linejoin="round"/>
</g>
</svg>

<svg width="470" height="360" fill="none" xmlns="http://www.w3.org/2000/svg"><mask id="a" maskUnits="userSpaceOnUse" x="0" y="0" width="470" height="360"><path fill="#fff" d="M0 0h470v360H0z"/></mask><g mask="url(#a)" stroke-width="2" stroke-linecap="round" stroke-linejoin="round"><path d="M146.331 65.508c4.081 0 8.066.413 11.914 1.2a58.652 58.652 0 0111.096 3.439 58.97 58.97 0 0110.041 5.44 59.309 59.309 0 018.748 7.207 59.314 59.314 0 017.218 8.735 58.531 58.531 0 018.894 21.103 59.135 59.135 0 011.202 11.893c0 4.074-.414 8.052-1.202 11.894a58.467 58.467 0 01-3.443 11.077 58.852 58.852 0 01-5.451 10.026 59.34 59.34 0 01-7.218 8.733 59.296 59.296 0 01-8.748 7.207 59.126 59.126 0 01-10.041 5.442 58.736 58.736 0 01-11.096 3.438 59.489 59.489 0 01-11.914 1.199c-4.08 0-8.064-.413-11.912-1.199a58.745 58.745 0 01-21.138-8.88 59.4 59.4 0 01-15.967-15.94 58.766 58.766 0 01-8.894-21.103 59.195 59.195 0 01-1.201-11.894c0-4.075.413-8.051 1.2-11.893a58.53 58.53 0 013.446-11.079 58.77 58.77 0 015.449-10.024 59.428 59.428 0 0115.967-15.942M89.106 85.774l24.175-10.187" stroke="#B2B2B2"/><path d="M146.331 115.672V83.213M174.547 147.184l-21.309-17.114" stroke="#231F20"/><path clip-rule="evenodd" d="M155.199 124.525c0-4.889-3.969-8.853-8.867-8.853-4.897 0-8.867 3.964-8.867 8.853 0 4.89 3.97 8.852 8.867 8.852 4.898 0 8.867-3.962 8.867-8.852z" stroke="#B2B2B2"/><path d="M232.377 137.283h108.578M232.377 88.162h108.578M232.377 160.888h130.075M232.377 113.312h130.075M363.439 203.654c29.001-14.541 48.898-44.522 48.898-79.129 0-48.89-39.7-88.525-88.669-88.525H146.331c-48.969 0-88.669 39.636-88.669 88.525s39.7 88.525 88.669 88.525v42.126l42.195-42.126h34.107" stroke="#231F20"/><path clip-rule="evenodd" d="M335.476 323.855l-24.566-24.771s-23.138.164-28.818.085c-15.144-.213-32.174 2.187-48.327-18.428-21.782-27.798-9.036-82.259 41.67-82.259h45.268c10.227 0 37.122 4.349 47.54 34.227 8.567 24.569-.715 55.218-32.767 64.294v26.852z" stroke="#B2B2B2"/><path clip-rule="evenodd" d="M337.5 250.56a6.408 6.408 0 01-6.413 6.404c-3.543 0-6.415-2.867-6.415-6.404s2.872-6.404 6.415-6.404a6.408 6.408 0 016.413 6.404zM303.827 250.56c0 3.537-2.872 6.404-6.414 6.404s-6.415-2.867-6.415-6.404 2.873-6.404 6.415-6.404 6.414 2.867 6.414 6.404zM270.155 250.56c0 3.537-2.873 6.404-6.415 6.404s-6.414-2.867-6.414-6.404 2.872-6.404 6.414-6.404 6.415 2.867 6.415 6.404z" stroke="#000"/></g></svg>
